X:1
T:Khvalitye imya Gospodie
T:Сергeй Рахманинов, 1910
T:Attributed to John Chrysostom, c. 349-407 AD
T:Милость мира
T:Литургиа Святого Иоанна Златоуста , Op. 31, No. 11
T:Public Domain
T:Public Domain
T:Public Domain
T:Public Domain
T:Public Domain
T:Public Domain
T:Public Domain
C:Sergei Rakhmanninov
Z:Public Domain
%%score [ ( 1 2 ) ( 3 4 ) ( 5 6 ) ( 7 8 ) ]
L:1/8
Q:1/4=60
M:4/4
K:Bb
V:1 treble nm="Сопрано" snm="С"
V:2 treble 
V:3 treble nm="Альт" snm="А"
V:4 treble 
V:5 treble-8 nm="Тенор" snm="Т"
V:6 treble-8 
V:7 bass nm="Бас" snm="Б"
V:8 bass 
V:1
"^Диакон:  Станем добре, станем со страхом, вонмем, святое возношение в мире приносити.\nDeacon:  Stand with reverence, stand with fear, attend the holy offering with peace.""^Довольно медленно\nModerately slow"!pp! z2"^Ми–лость ми–ра,        жер– тву   хва – ле  –  ни –  я.                  Ми – лость ми     –     ра,             жерт-ву  хва–""^Mi – lost'    mi–ra,       zher – tvu  khva– le   –   ni – ya.                 Mi  –   lost'   mi     –     ra,             zhert-vu khva–""^1"!<(! [df]4 [df]2!<)! | %1
!f!!>(! [df]4 [Bd]4-!>)! | [Bd]2!p!!<(! [Bd]4 [Bc][Bd]!<)! |!>(! !tenuto![Bd]3 B B4-!>)! | %4
 B2!p!!<(! F4 F2!<)! |!>(! !tenuto!F4 F4-!>)! | F2!mf! !tenuto!B4 FF | %7
"^– ле       –       –       –    ни       –       я.""^–  le        –      –       –     ni        –     ya." (G4!>(! A4!>)! | %8
 B4) d4 |!pp! !fermata![DB]8 || %10
[M:4/4]"^2"!p!"^Довольно медленно\nModerately slow"[Q:1/4=60]"^И     со      ду–хом  тво–им.""^I      so    du-khom tvo–im."!<(! DD!<)! | %11
 !tenuto!E2!>(! =EE !fermata!F4!>)! || %12
[M:4/4]"^Священник:  Горе имеим сердца.   Priest:  Lift up your hearts.""^3"!mf!"^Довольно медленно\nModerately slow"[Q:1/4=60]"^И   – ма –мы ко     Го – спо–ду.""^I   – ma-mui ko     Go –spo–du." ^F3 G!>(! G2 A2!>)! | %13
!p! B3 B B4 || %14
[M:6/4]"^Священник:  Благодарим Господа.   Priest:  Thank the Lord.""^4""^Медленно\nSlowly"!p![Q:1/4=35]"^До –стой–но        и  пра-ве-дно есть     по-кла   –   ня     –      ти – ся    От – цу    и    Сы–ну и  Свя –  то– му    Ду –""^Do– stoi – no        i   pra–ve–dno yest'     po-kla    –   nya   –       ti  –sya   Ot  –tsu    i     Sui-nu i  Svya  – to –mu  Du –"!<(! B2!<)! | %15
 (!tenuto!A3!>(! c) B4 z2!<(! B2!>)!!<)! | !tenuto!A2!>(! Ac B2- B z!<(! G2 A2!>)!!<)! | %17
[M:4/4] (!tenuto!B3 A B2)!>(! c2!>)! | d6!p! d2 | !tenuto!c6 d2 | !tenuto!B4 B2 dB | %21
 !tenuto!G3 G G4- | %22
 G4!pp!"^– ху.    Тро       –      и  – це    е –ди–но – суш   –   ней  и       не    –    раз – дель      –        –        –     –    ний.            е –""^– khu.   Tro       –       i  –tse   ye–di –no – sush  –    nei   i        ne    –    raz –  del'        –        –        –     –     nii.             ye–" G4 | %23
"^постепенно увеличивая звучность\ngradually getting louder"!p! (B2 F2 G2) A2 | B2 A2!mp! B2 c2 | %25
 (d3 c) B2!mf! c2 | (d4 e2) f2 |!f! (g8- |!ff!!>(! g6 d2)!>)! |!mf! B4-!>(! B z!p! B2!>)! | %30
[M:6/4]"^– ди –но–суш–ней и              не   –   раз–дель       –        –        –      ний.""^– di – no–sush–nei  i              ne   –   raz – del'         –        –        –       nii."!>(! A3 c B4 B2!<(! B2!>)!!<)! | %31
[M:4/4] !tenuto!A2- Ac!p! (B4- | B4 A3 G) |!pp! G8 || %34
[M:2/2]"^Священник:  Победную песнь поюще, вопиюще, взывающе и глаголюще.\nPriest:  The singers loudly call out the song of the victorious.""^5"[Q:1/4=120]"^Довольно скоро\nModerately fast"!ff!"^Свят,            Свят,          Свят.  Гос-подь За-ба – от,           ис–полнь       не– бо    и      зе   – мля  сла    –     вы""^Svyat,           Svyat,        Svyat,  Gos-pod'  Za-ba – ot,             is – poln'          ne –bo     i      ze    – mlya sla     –     vui" !tenuto!d3 z!>(! (!tenuto!d3 c)!>)! | %35
!ff! d3 F F2 Bd | !tenuto!d3 [Ac] (!tenuto!d2 c2) | %37
 !tenuto![Bd]2 !tenuto![ce]2 !tenuto![df]2 !tenuto![ce]2 | !tenuto![df]2 (!>!c3 B) !>!c2- | %39
 cB"^Тво-е –я,         о  –   сан–на в выш-них,      бла–го-сло-вен   гря  –   дый      во      и        –       мя    Го  –""^Tvo-ye-ya,        o  –   san–na v vuish-nikh,     bla– go–slo–ven   grya –  duii        vo       i         –      mya  Go –"cd !tenuto!c3!ff! c | %40
 !tenuto!d3 F !tenuto!d2 d2 | z FFF B2 d2 | !tenuto!d6 [ce]2 | %43
!<(! (([df]2 [eg]2)) [df]2 [ce]2!<)! || %44
[M:6/4]"^–спод– не,               о     –    сан–на   в выш    –     них.""^–spod –nye,            o      –    san–na   v vuish    –    nikh."!>(! !tenuto![df]4 [Bd]4- [Bd] z!mf! [Bd]2!>)! | %45
[M:2/2] [Af]4 B4 |!>(! [ce]8!>)! |!p! d8- | d8- | d8- |"^замедляя\nslowing"[Q:1/4=100] d8- | %51
[Q:1/4=90] d8- |[Q:1/4=80] !fermata!d8 | %53
!p!"^А  – минь. А  – минь.""^A  –  min'.   A  –  min'." ^F8 | !fermata!G8 | A8 | !fermata!B8 |] %57
V:2
 x8 | x8 | x8 | x2 x B x4 | x8 | x8 | x8 | x8 | x8 | x8 ||[M:4/4] x2 | x8 ||[M:4/4] x8 | x8 || %14
[M:6/4] x2 | x12 | x12 |[M:4/4] x8 | x8 | x8 | x8 | x8 | x8 | x8 | x8 | x8 | x8 | x8 | x8 | x8 | %30
[M:6/4] x12 |[M:4/4] x8 | x8 | x8 ||[M:2/2] x8 | x8 | x2 x2 !tenuto!B4 | x8 | x8 | x8 | x8 | x8 | %42
 x8 | x8 ||[M:6/4] x12 |[M:2/2] x8 | x8 | x8 | x8 | x8 | x8 | x8 | x8 | x8 | x8 | x8 | x8 |] %57
V:3
!pp! z2!<(! B4 B2!<)! |!f!!>(! B4 F4-!>)! | F2!p!!<(! [B,DF]4 [B,CE][B,DF]!<)! | %3
!>(! !tenuto![B,DF]3 B, B,4-!>)! | B,2!p!!<(! [B,D]4 [B,D]2!<)! |!>(! !tenuto![B,D]4 [B,D]4-!>)! | %6
 [B,D]2!mf! !tenuto!F4 FF | (E8 | D4) A,4 |!pp! !fermata!B,8 ||[M:4/4]!p! B,B, | %11
 !tenuto!B,2!>(! B,B, !fermata!A,4!>)! ||[M:4/4]!mf! !tenuto!C3 B,!>(! B,2 E2!>)! |!p! D3 D D4 || %14
[M:6/4]!p!!<(! G2!<)! | !tenuto!G4!>(! G4 z2!<(! G2!>)!!<)! | %16
 !tenuto!G2!>(! GG G2- G z!<(! G2 G2!>)!!<)! |[M:4/4] !tenuto!G6!>(! G2!>)! | G6!p! [DG]2 | %19
 !tenuto![CG]6 [DG]2 | !tenuto![EG]4 [EG]2 [DG][B,G] | !tenuto![G,D]3 [G,D] [G,D]4- | %22
 [G,D]4!pp! [G,D]4 |!p! [B,D]6 [B,D]2 | [B,D]2 [B,D]2!mp! [B,D]2 [DF]2 | [DF]4 [DF]2!mf! [DF]2 | %26
 (([DF]4 [EG]2)) [FG]2 |!f! (G6 (A2) |!ff!!>(! (B6) G2)!>)! |!mf! G4-!>(! G z!p! G2!>)! | %30
[M:6/4]!>(! !tenuto!G3 G G4 G2!<(! G2!>)!!<)! |[M:4/4] !tenuto!G2- GG!p! (G4- | G6 ^F2) |!pp! G8 || %34
[M:2/2]!ff! !tenuto!B3 z!>(! (!tenuto!B3 A)!>)! |!ff! B3 B, B,2 FB | %36
 !tenuto!B3 [FA] !tenuto![FB]4 | !tenuto![FB]2 !tenuto![FB]2 !tenuto![FB]2 !tenuto![FB]2 | %38
 !tenuto!B2 (!>!A3 G) !>!A2- | AGAB !tenuto!A3!ff! A | !tenuto!B3 B, !tenuto!B2 B2 | %41
 z B,B,B, F2 B2 | !tenuto!B6 [FB]2 | B4!<(! B2 [Bc]2!<)! || %44
[M:6/4]!>(! !tenuto![Bd]4 F4- F z!mf! G2!>)! |[M:2/2] F4 G4 |!>(! [CG]8!>)! | %47
!p!!>(! [D^F]4- [DF]!pp!"^бла–го –сло – вен гря-дый                во    и –  мя  Го –""^bla –go  – slo  – ven grya-duii                vo    i     mya Go –"FFF!>)! | %48
 ^F3 =E F4- | F2!mf! =E2!>(! ^F2 GG!>)! | %50
!pp!"^–спод  –  не,                   о – сан–на в выш-них.   А  – минь.  А –  минь.""^–spod   – nye,                 o  – san–na v vuish-nikh.  A  –  min'.    A –  min'." (^F3 =E) F4- | %51
 F2!p! =E2 ^F2 G2 |!pp! ^F4 F4 |!p! A,8 | !fermata!B,8 | C8 | !fermata!D8 |] %57
V:4
 x8 | x8 | x8 | x8 | x8 | x8 | x2 F4 FF | (E4!>(! (C4) | B,4) A,4 | x8 ||[M:4/4] x2!>)! | x8 || %12
[M:4/4] x8 | x8 ||[M:6/4] x2 | x12 | x12 |[M:4/4] x8 | x8 | x8 | x8 | x8 | x8 | x8 | x8 | x8 | x8 | %27
 G8- | G8 | x8 |[M:6/4] x12 |[M:4/4] x8 | x8 | x8 ||[M:2/2] x8 | x8 | x8 | x8 | x8 | x8 | x8 | x8 | %42
 x8 | x8 ||[M:6/4] x12 |[M:2/2] x8 | x8 | x8 | x8 | x8 | x8 | x8 | x8 | x8 | x8 | x8 | x8 |] %57
V:5
 z8 | %1
!pp! z2"^Ми-лость ми –ра,                           жер  –  тву хва-ле– ни– я.        Ми-лость ми-ра,   жерт-ву  хва–""^Mi – lost'   mi– ra,                            zher  – tvu khva-le– ni-ya.           Mi-lost'   mi-ra,   zhert-vu khva–"!<(! [Bdf]4 [Bdf]2!<)! | %2
!f!!>(! [Bdf]4!p! B4-!>)! | B2!<(! [Bd]4 [Be][Bd]!<)! |!>(! !tenuto![Bd]3 F F4-!>)! | %5
 F2 FF F2 F2- | F2!mf! !tenuto!B4 [FB][FB] | %7
"^– ле       –       –       –    ни       –       я.""^–  le        –      –       –     ni        –     ya." (B4!>(! (e4)!>)! | %8
 (d2) g2) (f2 e2) |!pp! !fermata!d8 || %10
[M:4/4]!p!"^И     со      ду–хом  тво–им.""^I      so    du-khom tvo–im."!<(! FF!<)! | %11
 !tenuto!E2!>(! GG !fermata!F4!>)! || %12
[M:4/4]!mf!"^И   – ма –мы ко     Го – спо–ду.""^I   – ma-mui ko     Go –spo–du." !tenuto!A3 G!>(! G2 [Ae]2!>)! | %13
!p! [Bd]3 [Bd] [Bd]4 || %14
[M:6/4]!p!"^До –стой–но        и  пра-ве-дно есть     по-кла   –   ня     –      ти – ся    От – цу    и    Сы–ну и  Свя –  то– му    Ду –""^Do– stoi – no        i   pra–ve–dno yest'     po-kla    –   nya   –       ti  –sya   Ot  –tsu    i     Sui-nu i  Svya  – to –mu  Du –"!<(! d2!<)! | %15
 !tenuto!c4!>(! d4 z2!<(! d2!>)!!<)! | !tenuto!e2!>(! ec d2- d z!<(! B2 c2!>)!!<)! | %17
[M:4/4] (!tenuto!d3 c d2)!>(! d2!>)! | d6!p! [GB]2 | [GB]6 [GB]2 | %20
 !tenuto![EGB]4 [EGB]2 [DGB][DGB] | !tenuto!G3 G G4- | %22
 G4!pp!"^– ху.    Тро       –      и  – це    е –ди–но – суш   –   ней  и       не    –    раз – дель      –        –        –     –    ний.            е –""^– khu.   Tro       –       i  –tse   ye–di –no – sush  –    nei   i        ne    –    raz –  del'        –        –        –     –     nii.             ye–" G4 | %23
!p! (B2 F2 G2) A2 | B2 A2!mp! B2 c2 | (d3 c) B2!mf! c2 | (d4 e2) f2 |!f! (g6 (a2) | %28
!ff!!>(! (b6) d2)!>)! |!mf! d4-!>(! d z!p! d2!>)! | %30
[M:6/4]"^– ди –но–суш–ней и              не   –   раз–дель       –        –        –      ний.""^– di – no–sush–nei  i              ne   –   raz – del'         –        –        –       nii."!>(! !tenuto!c3 c d4 d2!<(! d2!>)!!<)! | %31
[M:4/4] !tenuto!e2- ec!p! (d4- | d4 c4) |!pp! B8 || %34
[M:2/2]!ff!"^Свят,            Свят,          Свят.  Гос-подь За-ба – от,           ис–полнь       не– бо    и      зе   – мля  сла    –     вы""^Svyat,           Svyat,        Svyat,  Gos-pod'  Za-ba – ot,             is – poln'          ne –bo     i      ze    – mlya sla     –     vui" !tenuto![df]3 z!>(! !tenuto!f3 z!>)! | %35
!ff! [df]3 [Fd] [Fd]2 [Bd][B=e] | !tenuto![df]3 c (!tenuto!d2 [ce]2) | %37
 !tenuto!d2 !tenuto!c2 !tenuto!d2 !tenuto![ce]2 | !tenuto![df]2 !>![Ff]4 !>![Ff]2- | %39
 [Ff]2"^Тво-е –я,         о  –   сан–на в выш-них,      бла–го-сло-вен   гря  –   дый      во      и        –       мя    Го  –""^Tvo-ye-ya,        o  –   san–na v vuish-nikh,     bla– go–slo–ven   grya –  duii        vo       i         –      mya  Go –" [Ff][Bf] !tenuto![Ff]3!ff! [cf] | %40
 !tenuto![df]3 [Fd] !tenuto![df]2 [df]2 | z [Fd][Fd][Fd] [Bd]2 [B=e]2 | !tenuto![df]6 [ce]2 | %43
!<(! (([df]2 [eg]2)) [df]2 [ef]2!<)! || %44
[M:6/4]"^–спод– не,               о     –    сан–на   в выш    –    них,            бла–го – сло – вен гря-дый                во    и – мя  Го –""^–spod –nye,             o      –    san–na   v vuish    –    nikh,           bla –go  – slo  – ven grya-duii                vo    i     mya Go–"!>(! !tenuto!f4 d4- d z!mf! [Bd]2!>)! | %45
[M:2/2] [Ad]4 [Bd]4 |!>(! e8!>)! |!p!!>(! [Ad]4- [Ad]!pp![Ad][Ad][Ad]!>)! | %48
 !tenuto![Ad]3 [Bd] [Ad]4- | [Ad]2!mf! [Gd]2!>(! [Ad]2 [Bd][Bd]!>)! | %50
!pp!"^–спод  –  не,                   о – сан–на в выш-них.   А  – минь.  А –  минь.""^–spod   – nye,                 o  – san–na v vuish-nikh.  A  –  min'.    A –  min'." d4 [Ad]4- | %51
 [Ad]2!p! [Gd]2 [Ad]2 [Bd]2 |!pp! [Ad]4 !fermata![Ad]4 |!p! d8 | !fermata!D8 | [Fe]8 | %56
 !fermata![Fd]8 |] %57
V:6
 x8 | x8 | x8 | x8 | x8 | x8 | x8 | (G4 A4 | B4) f4 | F8 ||[M:4/4] x2 | x8 ||[M:4/4] x8 | x8 || %14
[M:6/4] x2 | x12 | x12 |[M:4/4] x8 | x8 | x8 | x8 | [DB]3 [DB] [DB]4- | [DB]4 [DB]4 | [DF]6 [DF]2 | %24
 [DF]2 [DF]2 [DF]2 [DF]2 | [FB]4 [FB]2 [FB]2 | (([FB]4 [GB]2)) [GB]2 | (B2 c2 d2 e2 | (g6) d2) | %29
 x8 |[M:6/4] x12 |[M:4/4] x8 | x8 | x8 ||[M:2/2] x2 x2 (d3 c) | x8 | x8 | x8 | x8 | x8 | x8 | x8 | %42
 x8 | x8 ||[M:6/4] x12 |[M:2/2] x8 | (G4 A4) | x8 | x8 | x8 | (A3 B) x4 | x8 | x8 | x8 | x8 | x8 | %56
 x8 |] %57
V:7
 z8 |!pp! z2!<(! [B,,F,]4 [B,,F,]2!<)! |!f!!>(! [B,,F,]4!p! [B,,F,]4-!>)! | %3
 [B,,F,]2!<(! [B,,F,]4 [B,,G,][B,,F,]!<)! |!>(! !tenuto![B,,F,]3 B,, B,,4-!>)! | %5
 B,,2 B,,B,, B,,2 B,,2- | B,,2!mf! !tenuto![D,,D,]4 [D,,D,][D,,D,] | ([E,,E,]4!>(! [F,,F,]4!>)! | %8
 [G,,G,]2 [=E,,=E,]2) [F,,F,]4 |!pp! !fermata!B,,8 ||[M:4/4]!p!!<(! B,,B,,!<)! | %11
 !tenuto!G,,2!>(! C,C, !fermata![F,,C,]4!>)! || %12
[M:4/4]!mf! !tenuto![D,,D,]3 [E,,E,]!>(! [E,,E,]2 [F,,F,]2!>)! |!p! [B,,F,]3 [B,,F,] [B,,F,]4 || %14
[M:6/4]!p!!<(! G,2!<)! | !tenuto!E,4!>(! G,4 z2!<(! G,2!>)!!<)! | %16
 !tenuto!C,2!>(! C,E, G,2- G, z!<(! G,2 G,2!>)!!<)! |[M:4/4] !tenuto!G,6!>(! A,2!>)! | B,6!p! D,2 | %19
 !tenuto!C,6 D,2 | !tenuto!B,,4 B,,2 D,B,, | !tenuto!G,,3 G,, G,,4- | G,,4!pp! G,,4 | %23
!p! (B,,2 F,,2 G,,2) A,,2 | B,,2 A,,2!mp! B,,2 C,2 | (D,3 C,) B,,2!mf! C,2 | (D,4 E,2) F,2 | %27
!f! (G,2 A,2 B,2 C2 |!ff!!>(! D6 B,2)!>)! |!mf! G,4-!>(! G, z!p! G,2!>)! | %30
[M:6/4]!>(! !tenuto!E,3 E, G,4 G,2!<(! G,2!>)!!<)! |[M:4/4] !tenuto!C,2- C,E,!p! (G,4- | G,4 D,4) | %33
!pp! [G,,D,]8 ||[M:2/2]!ff! !tenuto!B,3 z!>(! (!tenuto!B,3 F,)!>)! |!ff! B,3 B,, B,,2 F,G, | %36
 !tenuto!B,3 F, (!tenuto!B,2 F,2) | !tenuto!B,2 !tenuto!B,2 !tenuto!B,2 !tenuto!B,2 | %38
 !tenuto!B,2 ((!>![F,C]3 [D,B,])) !>![F,C]2- | [F,C][D,B,][F,C][B,D] !tenuto![F,C]3!ff! F, | %40
 !tenuto!B,3 B,, !tenuto!B,2 B,2 | z B,,B,,B,, F,2 G,2 | !tenuto!B,6 B,2 | %43
!<(! (B,2 C2) D2 C2!<)! ||[M:6/4]!>(! !tenuto!D4 B,4- B, z!mf! G,2!>)! |[M:2/2] D,4 [G,,D,]4 | %46
!>(! C,8!>)! |!p!!>(! [D,,D,]4- [D,,D,]!pp![D,,D,][D,,D,][D,,D,]!>)! | D,6 D,2 | D,6 D,2 | %50
!pp! D,4 D,2 D,2 | D,4 D,4- |!pp! !fermata!D,8 |!p! D,8 | !fermata!G,,8 | F,,8 | !fermata!B,,8 |] %57
V:8
 x8 | x8 | x8 | x8 | x8 | x8 | x8 | x8 | x8 | x8 ||[M:4/4] x2 | x8 ||[M:4/4] x8 | x8 ||[M:6/4] x2 | %15
 x12 | x12 |[M:4/4] x8 | x8 | x8 | x8 | x8 | x8 | x8 | x8 | x8 | x8 | x8 | x8 | x8 |[M:6/4] x12 | %31
[M:4/4] x8 | x8 | x8 ||[M:2/2] x8 | x8 | x8 | x8 | x8 | x8 | x8 | x8 | x8 | B,4 B,2 C2 || %44
[M:6/4] x12 |[M:2/2] x8 | x8 | x8 | D,,3 G,, D,,4- | D,,2!mf! B,,2 A,,2 G,,G,, | (D,,3 G,,) D,,4- | %51
 D,,2!p! B,,2 A,,2 G,,2 | D,,4 !fermata!D,,4 | x8 | x8 | x8 | x8 |] %57

